X: 63
T:Swallow Tail Jig
M:6/8
K:E Dorian
L:1/8
Q:1/4=88
uF |: "Em" (GE)E (BE)E | (GE)E (BA)G | "D" (FD)D (AD)D | (dcd) (AGF) |
"Em" (GE)E (BE)E | (GE)E B2 c | "D" (dcd) (AGF) |1 "Em" (GE)E E2 F :|2 "Em" GEE E2 B ||
|: "Em" (Bcd) (e2 f) | (e2 f) (edB) | (Bcd) (e2 f) | (edB) "D" d3 |
"Em" (Bcd) (e2 f) | (e2 f) (edB) | "D" (dcd) (AGF) |1 "Em" GEE E2 B :|2 "Em" GEE E2 |]

